images/work/google-interland/internaut.min.svg

<svg xmlns="http://www.w3.org/2000/svg" viewBox="0 0 80 100" enable-background="new 0 0 80 100"><title>familly</title><desc>Created with Sketch.</desc><g><path fill="#416CB3" d="M9 62.83l4.29 17.46 1.43-18.32-.2-17.05z"/><path fill="#3965AF" d="M14.52 44.92l2.65 18.27-3.88 17.1 1.43-18.32z"/><path fill="#416CB3" d="M63.72 43.39l-.76 18.37 5.36 16.29-2.91-16.49z"/><path fill="#3965AF" d="M65.41 61.56l2.91 16.48 2.14-17.66-6.74-16.99z"/><path fill="#112849" d="M18.14 41.04l20.93-2.15 20.88 2.15-.82 4.23-19.29 6.44-20.32-6.41z"/><path fill="#3863AD" d="M17.53 52.93l-1.43-5.41 2.04-6.48 1.38 4.26z"/><path fill="#112849" d="M59.95 41.04l1.99 6.43-.62 5.46-2.19-7.66z"/><path fill="#299AD6" d="M17.53 52.93l22.31 7.35v-8.57l-20.32-6.41z"/><path fill="#4B6EB4" d="M39.84 60.28l21.48-7.35-2.19-7.66-19.29 6.44z"/><g><path fill="#4F78BB" d="M23.343 76.413c-.05-.15-5.82-23.48-5.82-23.48l22.32 7.35-16.5 16.13z"/><path fill="#3863AD" d="M39.843 60.283l15.51 16.13 5.97-23.48z"/><path fill="#547DBE" d="M23.343 76.413h32.01l-15.51-16.13z"/><g transform="translate(18.376 -154.209)"><defs><filter id="a" filterUnits="userSpaceOnUse" x="9.26" y="234.5" width="11.71" height="11.03"><feColorMatrix values="1 0 0 0 0 0 1 0 0 0 0 0 1 0 0 0 0 0 1 0"/></filter></defs><mask maskUnits="userSpaceOnUse" x="9.26" y="234.5" width="11.71" height="11.03" id="b"><path fill="#fff" d="M9.26 245.53h11.71v-11.03h-11.71z" filter="url(#a)"/></mask><path mask="url(#b)" fill="#547DBE" d="M9.26 234.5l11.71 11.03-.63-10.77z"/></g><g transform="translate(32.159 -154.822)"><defs><filter id="c" filterUnits="userSpaceOnUse" x="9" y="234.7" width="12.25" height="11.43"><feColorMatrix values="1 0 0 0 0 0 1 0 0 0 0 0 1 0 0 0 0 0 1 0"/></filter></defs><mask maskUnits="userSpaceOnUse" x="9" y="234.7" width="12.25" height="11.43" id="d"><path fill="#fff" d="M9 246.14h12.25v-11.44h-12.25z" filter="url(#c)"/></mask><path mask="url(#d)" fill="#547DBE" d="M10.23 235.47l11.02-.77-12.25 11.44z"/></g><path fill="#112849" d="M27.633 80.293l2.45-2.04 7.4.4 1.23 1.89z"/><path fill="#112849" d="M42.383 80.653l.77-2.4 7.09-.72 3.17 2.35z"/><path fill="#F4F6F6" d="M14.513 32.613l12.25-17 12.82 25.07z"/><path fill="#DFE0E0" d="M56.833 19.393c-.05.15-17.25 21.29-17.25 21.29l-12.81-25.06 30.06 3.77z"/><path fill="#C7C7C8" d="M64.493 38.433l-24.91 2.25 17.25-21.29z"/><path fill="#3863AD" d="M26.763 15.613l15.37-2.14 14.7 5.92z"/><g transform="translate(18.683 -225.877)"><defs><filter id="e" filterUnits="userSpaceOnUse" x="9.11" y="234.68" width="4.54" height="6.67"><feColorMatrix values="1 0 0 0 0 0 1 0 0 0 0 0 1 0 0 0 0 0 1 0"/></filter></defs><mask maskUnits="userSpaceOnUse" x="9.11" y="234.68" width="4.54" height="6.67" id="f"><path fill="#fff" d="M13.65 234.68h-4.54v6.67h4.54z" filter="url(#e)"/></mask><path mask="url(#f)" fill="#299AD6" d="M9.11 241.35l4.54-6.67-2.03 6.32z"/></g><g transform="translate(21.133 -225.877)"><defs><filter id="g" filterUnits="userSpaceOnUse" x="9.17" y="234.68" width="2.03" height="6.32"><feColorMatrix values="1 0 0 0 0 0 1 0 0 0 0 0 1 0 0 0 0 0 1 0"/></filter></defs><mask maskUnits="userSpaceOnUse" x="9.17" y="234.68" width="2.03" height="6.32" id="h"><path fill="#fff" d="M11.2 234.68h-2.03v6.32h2.03z" filter="url(#g)"/></mask><path mask="url(#h)" fill="#3863AD" d="M10.14 240.86c-.02-.29 1.05-6.18 1.05-6.18l-2.02 6.32.97-.14z"/></g><path fill="#3863AD" d="M52.443 11.123l2.95 7.69-2.17-.87z"/><path fill="#299AD6" d="M52.033 17.463l.41-6.34.78 6.82z"/><path fill="#0E1F39" d="M14.513 32.613l24.45 9.96 25.53-4.14-24.91 2.25z"/><path fill="#3863AD" d="M23.343 76.413l8.58 2.81h13.99l9.44-2.81z"/><path fill="#221F1F" d="M26.993 28.153c-.48 1.58-1.85 2.56-3.07 2.19-1.21-.37-1.81-1.95-1.33-3.52.48-1.58 1.85-2.56 3.07-2.19 1.21.36 1.81 1.94 1.33 3.52"/><path fill="#221F1F" d="M57.183 30.383c.33 1.6-.4 3.09-1.63 3.34s-2.49-.84-2.81-2.43c-.33-1.6.4-3.09 1.63-3.34s2.48.84 2.81 2.43"/></g></g></svg>

<svg xmlns="http://www.w3.org/2000/svg" viewBox="0 0 80 100" enable-background="new 0 0 80 100"><title>familly</title><desc>Created with Sketch.</desc><g><path fill="#416CB3" d="M9 62.83l4.29 17.46 1.43-18.32-.2-17.05z"/><path fill="#3965AF" d="M14.52 44.92l2.65 18.27-3.88 17.1 1.43-18.32z"/><path fill="#416CB3" d="M63.72 43.39l-.76 18.37 5.36 16.29-2.91-16.49z"/><path fill="#3965AF" d="M65.41 61.56l2.91 16.48 2.14-17.66-6.74-16.99z"/><path fill="#112849" d="M18.14 41.04l20.93-2.15 20.88 2.15-.82 4.23-19.29 6.44-20.32-6.41z"/><path fill="#3863AD" d="M17.53 52.93l-1.43-5.41 2.04-6.48 1.38 4.26z"/><path fill="#112849" d="M59.95 41.04l1.99 6.43-.62 5.46-2.19-7.66z"/><path fill="#299AD6" d="M17.53 52.93l22.31 7.35v-8.57L19.52 45.3z"/><path fill="#4B6EB4" d="M39.84 60.28l21.48-7.35-2.19-7.66-19.29 6.44z"/><g><path fill="#4F78BB" d="M23.343 76.413c-.05-.15-5.82-23.48-5.82-23.48l22.32 7.35-16.5 16.13z"/><path fill="#3863AD" d="M39.843 60.283l15.51 16.13 5.97-23.48z"/><path fill="#547DBE" d="M23.343 76.413h32.01l-15.51-16.13z"/><g transform="translate(18.376 -154.209)"><defs><filter id="a" filterUnits="userSpaceOnUse" x="9.26" y="234.5" width="11.71" height="11.03"><feColorMatrix values="1 0 0 0 0 0 1 0 0 0 0 0 1 0 0 0 0 0 1 0"/></filter></defs><mask maskUnits="userSpaceOnUse" x="9.26" y="234.5" width="11.71" height="11.03" id="b"><path fill="#fff" d="M9.26 245.53h11.71V234.5H9.26z" filter="url(#a)"/></mask><path mask="url(#b)" fill="#547DBE" d="M9.26 234.5l11.71 11.03-.63-10.77z"/></g><g transform="translate(32.159 -154.822)"><defs><filter id="c" filterUnits="userSpaceOnUse" x="9" y="234.7" width="12.25" height="11.43"><feColorMatrix values="1 0 0 0 0 0 1 0 0 0 0 0 1 0 0 0 0 0 1 0"/></filter></defs><mask maskUnits="userSpaceOnUse" x="9" y="234.7" width="12.25" height="11.43" id="d"><path fill="#fff" d="M9 246.14h12.25V234.7H9z" filter="url(#c)"/></mask><path mask="url(#d)" fill="#547DBE" d="M10.23 235.47l11.02-.77L9 246.14z"/></g><path fill="#112849" d="M27.633 80.293l2.45-2.04 7.4.4 1.23 1.89z"/><path fill="#112849" d="M42.383 80.653l.77-2.4 7.09-.72 3.17 2.35z"/><path fill="#F4F6F6" d="M14.513 32.613l12.25-17 12.82 25.07z"/><path fill="#DFE0E0" d="M56.833 19.393c-.05.15-17.25 21.29-17.25 21.29l-12.81-25.06 30.06 3.77z"/><path fill="#C7C7C8" d="M64.493 38.433l-24.91 2.25 17.25-21.29z"/><path fill="#3863AD" d="M26.763 15.613l15.37-2.14 14.7 5.92z"/><g transform="translate(18.683 -225.877)"><defs><filter id="e" filterUnits="userSpaceOnUse" x="9.11" y="234.68" width="4.54" height="6.67"><feColorMatrix values="1 0 0 0 0 0 1 0 0 0 0 0 1 0 0 0 0 0 1 0"/></filter></defs><mask maskUnits="userSpaceOnUse" x="9.11" y="234.68" width="4.54" height="6.67" id="f"><path fill="#fff" d="M13.65 234.68H9.11v6.67h4.54z" filter="url(#e)"/></mask><path mask="url(#f)" fill="#299AD6" d="M9.11 241.35l4.54-6.67-2.03 6.32z"/></g><g transform="translate(21.133 -225.877)"><defs><filter id="g" filterUnits="userSpaceOnUse" x="9.17" y="234.68" width="2.03" height="6.32"><feColorMatrix values="1 0 0 0 0 0 1 0 0 0 0 0 1 0 0 0 0 0 1 0"/></filter></defs><mask maskUnits="userSpaceOnUse" x="9.17" y="234.68" width="2.03" height="6.32" id="h"><path fill="#fff" d="M11.2 234.68H9.17V241h2.03z" filter="url(#g)"/></mask><path mask="url(#h)" fill="#3863AD" d="M10.14 240.86c-.02-.29 1.05-6.18 1.05-6.18L9.17 241l.97-.14z"/></g><path fill="#3863AD" d="M52.443 11.123l2.95 7.69-2.17-.87z"/><path fill="#299AD6" d="M52.033 17.463l.41-6.34.78 6.82z"/><path fill="#0E1F39" d="M14.513 32.613l24.45 9.96 25.53-4.14-24.91 2.25z"/><path fill="#3863AD" d="M23.343 76.413l8.58 2.81h13.99l9.44-2.81z"/><path fill="#221F1F" d="M26.993 28.153c-.48 1.58-1.85 2.56-3.07 2.19-1.21-.37-1.81-1.95-1.33-3.52.48-1.58 1.85-2.56 3.07-2.19 1.21.36 1.81 1.94 1.33 3.52"/><path fill="#221F1F" d="M57.183 30.383c.33 1.6-.4 3.09-1.63 3.34s-2.49-.84-2.81-2.43c-.33-1.6.4-3.09 1.63-3.34s2.48.84 2.81 2.43"/></g></g></svg>
